X: 1832
T: Yellow John
M:6/8
L:1/8
B:O'Neill's 1832
N:"1st Setting"
Z:"Transcribed by Bob Safranek, rjs@gsp.org"
K:D
D | DFA AFA | BGB A2    F   | DFA AFA | B2 c d2 D |
    DFA AFA | BGB A2 (B/c/) | dfd ecA | B2 c d2   ||
e | fdf ece | dcB A2 (d/e/) | fdf ecA | B2 c d2 e |
    fdf ece | dcB A2    F   | DFA AFA | B2 c d2   ||
z | d3  c3  | BcB A2    z   | DFA AFA | B2 c d3   |
    dBd cAc | BGB A2 (B/c/) | def ecA | B2 c d2   |]


